static/assets/images/icons/pie-chart.svg

<svg width="256" height="256" viewBox="0 0 256 256" fill="none" xmlns="http://www.w3.org/2000/svg">
<path d="M120.334 30.0885C120.334 28.8644 119.279 27.8936 118.055 28.0202C93.3604 30.5444 70.4805 42.1406 53.8445 60.5641C37.2084 78.9877 27.9994 102.928 28 127.751C27.9999 147.611 33.8985 167.023 44.9476 183.525C55.9967 200.028 71.6984 212.876 90.0609 220.442C108.423 228.007 128.619 229.948 148.086 226.018C167.553 222.088 185.414 212.464 199.404 198.368C199.608 198.161 199.767 197.913 199.869 197.641C199.972 197.369 200.016 197.078 199.999 196.787C199.982 196.497 199.905 196.213 199.771 195.955C199.638 195.696 199.451 195.469 199.225 195.287L123.278 133.903C122.36 133.162 121.619 132.225 121.11 131.161C120.6 130.096 120.335 128.931 120.334 127.751V30.0885Z" fill="black"/>
<path d="M209.186 182.983C210.136 183.753 211.55 183.552 212.225 182.518C220.979 169.136 226.386 153.845 227.991 137.934C228.017 137.646 227.983 137.355 227.89 137.08C227.798 136.806 227.649 136.554 227.453 136.34C227.257 136.126 227.019 135.956 226.754 135.84C226.488 135.724 226.201 135.664 225.912 135.666H156.603C156.168 135.666 155.743 135.802 155.388 136.053C155.033 136.305 154.764 136.66 154.618 137.07C154.473 137.48 154.457 137.925 154.575 138.345C154.692 138.764 154.936 139.137 155.273 139.412L209.186 182.983ZM225.912 119.837C227.136 119.837 228.107 118.782 227.991 117.558C225.647 94.6067 215.46 73.1663 199.147 56.8533C182.834 40.5402 161.393 30.3528 138.442 28.0097C138.153 27.9817 137.861 28.0146 137.585 28.1065C137.309 28.1983 137.056 28.347 136.841 28.5429C136.626 28.7388 136.455 28.9776 136.338 29.2438C136.221 29.51 136.162 29.7978 136.163 30.0885V116.671C136.163 117.511 136.496 118.316 137.09 118.91C137.684 119.503 138.489 119.837 139.329 119.837H225.912Z" fill="black"/>
</svg>

<svg xmlns="http://www.w3.org/2000/svg" fill="none" viewBox="0 0 256 256"><path fill="#000" d="M120.334 30.089a2.074 2.074 0 0 0-2.279-2.069 100.25 100.25 0 1 0 81.349 170.348 2.075 2.075 0 0 0 .367-2.413 2.1 2.1 0 0 0-.546-.668l-75.947-61.384a7.91 7.91 0 0 1-2.944-6.152z"/><path fill="#000" d="M209.186 182.983c.95.77 2.364.569 3.039-.465a99.7 99.7 0 0 0 15.766-44.584 2.08 2.08 0 0 0-2.079-2.268h-69.309a2.107 2.107 0 0 0-2.028 2.679c.117.419.361.792.698 1.067zm16.726-63.146a2.09 2.09 0 0 0 2.079-2.279 100.25 100.25 0 0 0-89.549-89.548 2.08 2.08 0 0 0-2.279 2.078v86.583a3.165 3.165 0 0 0 3.166 3.166z"/></svg>
